!!!COM: Palestrina, Giovanni Perluigi da
!!!OPR: Missa Pro Defunctis
!!!OMD: Kyrie
!!!OTL: First Section
**kern	**kern	**kern	**kern	**kern
*Ibass	*Itenor	*Itenor	*Icalto	*Icant
!Bassus	!Tenor 2	!Tenor 1	!Altus	!Cantus
*clefF4	*clefGv2	*clefGv2	*clefG2	*clefG2
*k[]	*k[]	*k[]	*k[]	*k[]
*?:X	*?:X	*?:X	*?:X	*?:X
*M4/2	*M4/2	*M4/2	*M4/2	*M4/2
=1	=1	=1	=1	=1
0r	1F	0r	1c	1r
.	1B-	.	1d	1f
=2	=2	=2	=2	=2
0r	1G	0r	1e	1g
.	2F	.	[1f	1a
.	2A	.	.	.
=3	=3	=3	=3	=3
0r	1G	0r	2f]	1.b-
.	.	.	2e	.
.	[1F	.	2d	.
.	.	.	[2c	2a
=4	=4	=4	=4	=4
1r	1F]	0r	2c]	1a
.	.	.	1f	.
1C	2.c	.	.	1g
.	.	.	2e	.
.	4B-	.	.	.
=5	=5	=5	=5	=5
1F	1A	1r	2d	1.a
.	.	.	1c	.
1D	1r	1F	.	.
.	.	.	2B	4g
.	.	.	.	4f
=6	=6	=6	=6	=6
2C	2r	1G	1c	4e
.	.	.	.	4f
2E	2c	.	.	2.g
1D	[1d	1A	1r	.
.	.	.	.	4f
.	.	.	.	[2f
=7	=7	=7	=7	=7
1G	2d]	1.B-	1r	2f]
.	2B-	.	.	2e
1F	1c	.	2r	[1f
.	.	2A	[2c	.
=8	=8	=8	=8	=8
1r	1F	1A	2c]	1f]
.	.	.	2d	.
1C	1c	1G	1e	1r
=9	=9	=9	=9	=9
1F	1r	1.A	2f	1c
.	.	.	2F	.
1D	1F	.	2A	1d
.	.	4G	2B-	.
.	.	4F	.	.
=10	=10	=10	=10	=10
2.C	1G	4E	0c	1e
.	.	4F	.	.
.	.	2.G	.	.
4BB-	.	.	.	.
2AA	1A	.	.	2f
.	.	4F	.	.
2FF	.	[2F	.	2a
=11	=11	=11	=11	=11
1GG	1.B-	2F]	2r	1g
.	.	2E	2B-	.
1FF	.	[1F	2d	2r
.	2A	.	4c	[2a
.	.	.	4B-	.
=12	=12	=12	=12	=12
2r	1A	1F]	1.c	2a]
1F	.	.	.	2f
.	1G	1C	.	1g
2E	.	.	2c	.
=13	=13	=13	=13	=13
2F	1.A	1F	[0c	2f
2FF	.	.	.	4c
.	.	.	.	4d
[1C	.	2.E	.	4e
.	.	.	.	4f
.	4G	.	.	4g
.	4F	4F	.	4a
=14	=14	=14	=14	=14
0C]	2E	2G	1c_	2g
.	2F	2A	.	1f
.	1G	2G	1c_	.
.	.	2c	.	2e
=15	=15	=15	=15	=15
0FF	0F	0A	0c]	0f
=16	=16	=16	=16	=16
0r	0r	1F	0r	0r
.	.	1G	.	.
=17	=17	=17	=17	=17
0r	0r	1A	1c	1r
.	.	2.B-	1d	1f
.	.	4A	.	.
=18	=18	=18	=18	=18
0r	1r	4G	1e	1g
.	.	4C	.	.
.	.	1c	.	.
.	1F	.	1f	1a
.	.	[2d	.	.
=19	=19	=19	=19	=19
0r	1G	2d]	2d	1b-
.	.	4c	1e	.
.	.	4B	.	.
.	1A	1c	.	2a
.	.	.	[2f	[2a
=20	=20	=20	=20	=20
0r	1.B-	1.d	4f]	2a]
.	.	.	4e	.
.	.	.	4d	4g
.	.	.	4c	4f
.	.	.	2d	2g
.	2A	2c	2e	2a
=21	=21	=21	=21	=21
1r	1A	4F	2c	0cc
.	.	4G	.	.
.	.	4A	1f	.
.	.	4B-	.	.
1C	2G	1c	.	.
.	[2A	.	2e	.
=22	=22	=22	=22	=22
1D	2A]	1F	1f	1a
.	4G	.	.	.
.	4F	.	.	.
1E	1G	1C	1r	2g
.	.	.	.	[2cc
=23	=23	=23	=23	=23
1.F	1A	2r	0c	4cc]
.	.	.	.	4b-
.	.	4F	.	1a
.	.	4G	.	.
.	1r	4A	.	.
.	.	4B-	.	.
2E	.	[2c	.	2g
=24	=24	=24	=24	=24
1D	2r	2c]	1d	1f
.	2F	2B	.	.
1C	2G	1c	1e	1r
.	[2A	.	.	.
=25	=25	=25	=25	=25
1D	2A]	1F	1.f	0r
.	2B-	.	.	.
[1C	[1c	1G	.	.
.	.	.	2e	.
=26	=26	=26	=26	=26
1C]	1c]	1A	1e	1r
2.BB-	[1F	[1B-	[1d	[1f
4C	.	.	.	.
=27	=27	=27	=27	=27
4D	1F]	2B-]	2d]	1f]
4E	.	.	.	.
1F	.	2A	2c	.
.	1C	1G	2.c	1g
2E	.	.	.	.
.	.	.	4B-	.
=28	=28	=28	=28	=28
1F	1c	[0F	4A	1a
.	.	.	4G	.
.	.	.	2F	.
1BB-	1d	.	[1f	[1b-
=29	=29	=29	=29	=29
0FF	1.c	0F]	1f]	2b-]
.	.	.	.	2a
.	.	.	2r	1a
.	2A	.	2c	.
=30	=30	=30	=30	=30
1r	2B-	2r	2d	1g
.	2c	2c	2e	.
1FF	[1F	2c	2.f	[1a
.	.	[2c	.	.
.	.	.	8e	.
.	.	.	8d	.
=31	=31	=31	=31	=31
2AA	1F]	2c]	2c	2a]
2BB-	.	4B-	2d	4g
.	.	4A	.	4f
[1C	2r	2G	[1c	4e
.	.	.	.	4f
.	2C	2E	.	[2g
=32	=32	=32	=32	=32
2C]	2E	2G	0c]	2g]
2FF	2F	2A	.	1f
1C	4G	1G	.	.
.	4C	.	.	.
.	[2c	.	.	2e
=33	=33	=33	=33	=33
[0FF	4c]	[0F	2.A	[0f
.	4B-	.	.	.
.	4A	.	.	.
.	4G	.	4B-	.
.	[1A	.	2c	.
.	.	.	2d	.
=34	=34	=34	=34	=34
0FF]	0A]	0F]	0c	0f]
=35	=35	=35	=35	=35
0r	1.c	0r	1r	0r
.	.	.	[1c	.
.	2F	.	.	.
=36	=36	=36	=36	=36
1r	1F	1.c	2c]	0r
.	.	.	2F	.
[1F	2.c	.	2.F	.
.	.	2F	.	.
.	4B-	.	4G	.
=37	=37	=37	=37	=37
2F]	2c	1F	2A	0r
2BB-	2.d	.	4B-	.
.	.	.	4c	.
1BB-	.	[1B-	4d	.
.	4c	.	4e	.
.	4d	.	[2f	.
.	4B-	.	.	.
=38	=38	=38	=38	=38
0F	1c	2B-]	2f]	1.cc
.	.	4A	2c	.
.	.	4G	.	.
.	2c	4A	1f	.
.	.	4B-	.	.
.	[2A	[2c	.	2f
=39	=39	=39	=39	=39
1D	2A]	2c]	2r	1f
.	4G	2B	1f	.
.	4F	.	.	.
1C	[1G	1c	.	1cc
.	.	.	2e-	.
=40	=40	=40	=40	=40
1GG	1G]	2d	1d	1b-
.	.	1G	.	.
1C	1r	.	1e-	1cc
.	.	2A	.	.
=41	=41	=41	=41	=41
1BB-	2r	1.B-	2.d	1.dd
.	2F	.	.	.
.	.	.	4c	.
1r	2G	.	2B-	.
.	2A	2A	2c	2cc
=42	=42	=42	=42	=42
1r	2B-	2G	2d	2b-
.	2c	2F	1f	2a
2r	1C	[1c	.	[1g
[2C	.	.	4e	.
.	.	.	4d	.
=43	=43	=43	=43	=43
2C]	2r	1c]	2e	2g]
2FF	1c	.	2.A	2f
[1FF	.	2r	.	[1a
.	.	.	4G	.
.	2F	[2c	4A	.
.	.	.	4B-	.
=44	=44	=44	=44	=44
2FF]	1F	2c]	2A	1a]
1F	.	2c	2F	.
.	1c	1C	1G	1g
2E-	.	.	.	.
=45	=45	=45	=45	=45
1D	1B-	1F	2F	1r
.	.	.	1f	.
1C	1c	2G	.	1cc
.	.	2A	2e-	.
=46	=46	=46	=46	=46
1.BB-	1.d	2.B-	2d	1f
.	.	.	1B-	.
.	.	4A	.	.
.	.	4F	.	1f
.	.	4G	.	.
2AA	2c	2A	2c	.
=47	=47	=47	=47	=47
1BB-	1B-	4D	1d	0f
.	.	4E	.	.
.	.	4F	.	.
.	.	4G	.	.
1FF	1A	4A	2c	.
.	.	4B-	.	.
.	.	4c	[2f	.
.	.	4d	.	.
=48	=48	=48	=48	=48
0C	0G	0c	2f]	0g
.	.	.	4e	.
.	.	.	4d	.
.	.	.	1e	.
=49	=49	=49	=49	=49
[0FF	[0F	[0c	[0f	[0a
=50	=50	=50	=50	=50
0FF]	0F]	0c]	0f]	0a]
*-	*-	*-	*-	*-
!!!CDT: 1525/^1526/-1594/2/2
!!!OCY: Italia
!!!AGN: Mass (Paraphrase)
!!!AST: renaissance, vocal
!!!ASW: Gregorian Mass
!!!PWK: Masses, Book 1
!!!RNB: Cadence finals: F,G,D
!!!YOR: Le Opere Complete, v. 1, p. 164
!!!YOO: Rome, Italy: Fratelli Scalera
!!!END: 1992//
!!!EED: John Miller
!!!YEC: Copyright 2000, John Miller
!!!YEN: United States of America
!!!YEM: Rights to all derivative electronic formats reserved.
!!!YEM: Refer to licensing agreement for further details.
!!!YEM: This file must be accompanied by the licensing agreement.
!!!YEM: A copy of the licensing agreement may be found at http://www.music-cog.ohio-state.edu/HumdrumDatabases/Palestrina/license.txt
!!!EMD: converted to Humdrum by Bret Aarden
